(PLATINE-FRS-PROTO-MK-II)
(FRAES-FRAES)
(T1  D=3. CR=0. TAPER=10DEG - ZMIN=-0.2 - FASENFRSER)
G90 G94 G91.1 G40 G49 G17
G21
G28 G91 Z0.
G90

(2D-KONTUR6)
M5
T1 M6
S5000 M3
G54
G0 X0.182 Y0.897
G43 Z15. H1
Z5.
G1 Z1. F333.
Z0.1
X0.179 Y0.891 Z0.033 F50.
X0.17 Y0.87 Z-0.03
X0.155 Y0.838 Z-0.087
X0.135 Y0.795 Z-0.135
X0.111 Y0.743 Z-0.17
X0.084 Y0.686 Z-0.192
X0.056 Y0.625 Z-0.2
X-0.069 Y0.353
G3 X0.077 Y-0.045 I0.272 J-0.126
G2 X0.382 Y-0.958 I-0.277 J-0.6 F10.
G1 X2.423 Y-2.444
G2 X2.633 Y-2.861 I-0.299 J-0.411
G1 Y-3.097
G2 X1.616 Y-3.908 I-0.508 J-0.406
X1.608 Y-3.107 I0.508 J0.406
G1 X-0.868 Y-1.305
X-1.52
G2 Y0.015 I0. J0.66
G1 X-0.2
G2 X0.077 Y-0.045 I0. J-0.66
G3 X0.475 Y0.101 I0.126 J0.272 F50.
G1 X0.601 Y0.374
X0.629 Y0.434 Z-0.192
X0.656 Y0.492 Z-0.17
X0.679 Y0.543 Z-0.135
X0.699 Y0.587 Z-0.087
X0.714 Y0.619 Z-0.03
X0.724 Y0.639 Z0.033
X0.727 Y0.646 Z0.1
G0 Z5.
X3.568 Y0.003
G1 Z1. F333.
Z0.1
G18 G2 X3.868 Z-0.2 I0.3 K0. F50.
G1 X4.168
G17 G3 X4.468 Y0.303 I0. J0.3
G1 Y1.167 F10.
X2.044 Y3.591
G2 X1.557 I-0.243 J0.603
G1 X-0.288 Y1.745
Y1.541
G2 X-0.797 Y0.344 I-0.254 J-0.598
Y1.541 I0.254 J0.598
G1 Y1.847
X-0.792 Y1.897
X-0.778 Y1.946
X-0.754 Y1.991
X-0.722 Y2.03
X1.198 Y3.95
G2 X2.403 Y4.437 I0.603 J0.243
Y3.95 I-0.603 J-0.243
G1 X4.901 Y1.452
X4.933 Y1.414
X4.956 Y1.37
X4.971 Y1.322
X4.976 Y1.273
Y-8.473
G2 X4.468 Y-9.67 I-0.254 J-0.598
Y-8.473 I0.254 J0.598
G1 Y0.303
G3 X4.168 Y0.603 I-0.3 J0. F50.
G1 X3.868
G18 G3 X3.568 Z0.1 I0. K0.3
G0 Z5.
X6.572 Y0.799
G1 Z1. F333.
Z0.1
X6.577 Y0.793 Z0.033 F50.
X6.593 Y0.778 Z-0.03
X6.618 Y0.752 Z-0.087
X6.651 Y0.719 Z-0.135
X6.692 Y0.679 Z-0.17
X6.737 Y0.634 Z-0.192
X6.784 Y0.586 Z-0.2
X6.996 Y0.374
G17 G3 X7.42 I0.212 J0.212
G1 X9.964 Y2.918 F10.
G2 X11.176 Y3.412 I0.606 J0.247
X10.324 Y2.559 I-0.606 J-0.247
G1 X7.712 Y-0.052
G2 X7.42 Y-1.305 I-0.291 J-0.593
G1 X6.1
G2 Y0.015 I0. J0.66
G1 X7.061
X7.42 Y0.374
G3 Y0.799 I-0.212 J0.212 F50.
G1 X7.208 Y1.011
X7.161 Y1.058 Z-0.192
X7.116 Y1.103 Z-0.17
X7.076 Y1.143 Z-0.135
X7.042 Y1.177 Z-0.087
X7.017 Y1.202 Z-0.03
X7.001 Y1.218 Z0.033
X6.996 Y1.223 Z0.1
G0 Z5.
X6.854 Y1.566
G1 Z1. F333.
Z0.1
G19 G3 Y1.866 Z-0.2 J0.3 K0. F50.
G1 Y2.166
G17 G3 X6.554 Y2.466 I-0.3 J0.
G1 X5.754 F10.
X5.704 Y2.471
X5.655 Y2.485
X5.61 Y2.509
X5.571 Y2.541
X1.645 Y6.467
X0.222
G2 X-0.2 Y6.315 I-0.422 J0.508
G1 X-1.52
G2 Y7.635 I0. J0.66
G1 X-0.2
G2 X0.461 Y6.975 I0. J-0.66
G1 X1.746
X1.797 Y6.971
X1.845 Y6.956
X1.89 Y6.933
X1.93 Y6.901
X5.856 Y2.975
X7.798
X8.538 Y3.715
Y6.277
X8.543 Y6.326
X8.557 Y6.374
X8.581 Y6.418
X8.612 Y6.456
X10.031 Y7.875
G2 X11.109 Y8.615 I0.539 J0.37
X10.473 Y7.598 I-0.539 J-0.37
G1 X9.046 Y6.171
Y3.609
X9.041 Y3.56
X9.026 Y3.512
X9.003 Y3.468
X8.971 Y3.429
X8.083 Y2.541
X8.044 Y2.509
X8. Y2.486
X7.953 Y2.471
X7.903 Y2.466
X6.554
G3 X6.254 Y2.166 I0. J-0.3 F50.
G1 Y1.866
G19 G2 Y1.566 Z0.1 J0. K0.3
G0 Z5.
X4.515 Y4.318
G1 Z1. F333.
Z0.1
X4.522 Y4.317 Z0.033 F50.
X4.544 Y4.315 Z-0.03
X4.58 Y4.31 Z-0.087
X4.627 Y4.305 Z-0.135
X4.684 Y4.298 Z-0.17
X4.747 Y4.291 Z-0.192
X4.813 Y4.283 Z-0.2
X5.111 Y4.248
G17 G3 X5.444 Y4.512 I0.035 J0.298
G2 X6.1 Y5.095 I0.656 J-0.077 F10.
G1 X7.42
G2 Y3.775 I0. J-0.66
G1 X6.1
G2 X5.444 Y4.512 I0. J0.66
G3 X5.18 Y4.844 I-0.298 J0.035 F50.
G1 X4.883 Y4.879
X4.816 Y4.887 Z-0.192
X4.753 Y4.894 Z-0.17
X4.697 Y4.901 Z-0.135
X4.65 Y4.906 Z-0.087
X4.614 Y4.911 Z-0.03
X4.592 Y4.913 Z0.033
X4.585 Y4.914 Z0.1
G0 Z5.
X6.4 Y5.415
G1 Z1. F333.
Z0.1
G19 G3 Y5.715 Z-0.2 J0.3 K0. F50.
G1 Y6.015
G17 G3 X6.1 Y6.315 I-0.3 J0.
G2 Y7.635 I0. J0.66 F10.
G1 X7.125
X8.538 Y9.049
Y16.5
X8.543 Y16.55
X8.558 Y16.598
X8.581 Y16.642
X8.613 Y16.68
X10.006 Y18.073
G2 X11.134 Y18.736 I0.564 J0.331
X10.42 Y17.768 I-0.564 J-0.331
G1 X9.046 Y16.395
Y8.943
X9.041 Y8.894
X9.026 Y8.846
X9.003 Y8.802
X8.971 Y8.763
X7.753 Y7.545
G2 X7.42 Y6.315 I-0.333 J-0.57
G1 X6.1
G3 X5.8 Y6.015 I0. J-0.3 F50.
G1 Y5.715
G19 G2 Y5.415 Z0.1 J0. K0.3
G0 Z5.
X6.388 Y7.952
G1 Z1. F333.
Z0.1
Y7.96 Z0.033 F50.
X6.389 Y7.982 Z-0.03
Y8.018 Z-0.087
Y8.065 Z-0.135
X6.39 Y8.122 Z-0.17
Y8.186 Z-0.192
X6.391 Y8.252 Z-0.2
X6.393 Y8.552
G17 G3 X6.095 Y8.855 I-0.3 J0.002
G2 X5.484 Y9.755 I0.005 J0.66 F10.
G1 X2.635 Y12.604
G2 X2.486 Y12.973 I0.359 J0.359
G1 Y23.604
G2 X2.635 Y23.971 I0.508 J0.008
G1 X4.696 Y26.032
G2 X5.058 Y26.184 I0.362 J-0.357
G1 X10.502
X10.584 Y26.177
X10.663 Y26.158
X10.739 Y26.125
X10.808 Y26.082
X10.869 Y26.027
X11.945 Y24.904
G2 X12.091 Y24.548 I-0.363 J-0.356
G1 Y23.96
G2 X11.075 Y22.985 I-0.508 J-0.487
Y23.96 I0.508 J0.487
G1 Y24.344
X10.285 Y25.168
X5.269
X3.503 Y23.402
Y13.174
X6.501 Y10.175
X7.42
G2 Y8.855 I0. J-0.66
G1 X6.1
X6.095
G3 X5.793 Y8.557 I-0.002 J-0.3 F50.
G1 X5.791 Y8.257
X5.79 Y8.19 Z-0.192
Y8.127 Z-0.17
X5.789 Y8.07 Z-0.135
Y8.022 Z-0.087
Y7.986 Z-0.03
X5.788 Y7.964 Z0.033
Y7.957 Z0.1
G0 Z5.
X7.72 Y10.495
G1 Z1. F333.
Z0.1
G19 G3 Y10.795 Z-0.2 J0.3 K0. F50.
G1 Y11.095
G17 G3 X7.42 Y11.395 I-0.3 J0.
G1 X6.1 F10.
G2 Y12.715 I0. J0.66
G1 X6.506
Y13.935
X6.1
G2 Y15.255 I0. J0.66
G1 X7.42
G2 X7.522 Y13.942 I0. J-0.66
G1 Y12.708
G2 X7.42 Y11.395 I-0.102 J-0.653
G3 X7.12 Y11.095 I0. J-0.3 F50.
G1 Y10.795
G19 G2 Y10.495 Z0.1 J0. K0.3
G0 Z5.
X9.054 Y11.24
G1 Z1. F333.
Z0.1
X9.061 Y11.237 Z0.033 F50.
X9.081 Y11.227 Z-0.03
X9.112 Y11.21 Z-0.087
X9.154 Y11.188 Z-0.135
X9.205 Y11.162 Z-0.17
X9.261 Y11.132 Z-0.192
X9.32 Y11.101 Z-0.2
X9.586 Y10.962
G17 G3 X9.991 Y11.089 I0.139 J0.266
G2 X11.149 Y10.481 I0.579 J-0.304 F10.
X10.57 Y10.131 I-0.579 J0.304
G1 X10.562
G2 X9.916 Y10.785 I0.008 J0.654
X9.991 Y11.089 I0.654 J0.
G3 X9.864 Y11.493 I-0.266 J0.139 F50.
G1 X9.598 Y11.633
X9.539 Y11.664 Z-0.192
X9.483 Y11.693 Z-0.17
X9.433 Y11.719 Z-0.135
X9.391 Y11.742 Z-0.087
X9.359 Y11.758 Z-0.03
X9.339 Y11.768 Z0.033
X9.333 Y11.772 Z0.1
G0 Z5.
X10.066 Y11.825
G1 Z1. F333.
Z0.1
X10.069 Y11.831 Z0.033 F50.
X10.08 Y11.851 Z-0.03
X10.098 Y11.882 Z-0.087
X10.121 Y11.923 Z-0.135
X10.149 Y11.973 Z-0.17
X10.181 Y12.028 Z-0.192
X10.213 Y12.086 Z-0.2
X10.361 Y12.347
G3 X10.248 Y12.756 I-0.261 J0.148
G2 X10.57 Y13.979 I0.322 J0.569 F10.
G1 X10.578
G2 X11.224 Y13.325 I-0.008 J-0.654
X10.248 Y12.756 I-0.654 J0.
G3 X9.839 Y12.643 I-0.148 J-0.261 F50.
G1 X9.691 Y12.381
X9.658 Y12.323 Z-0.192
X9.627 Y12.268 Z-0.17
X9.599 Y12.219 Z-0.135
X9.576 Y12.177 Z-0.087
X9.558 Y12.146 Z-0.03
X9.547 Y12.127 Z0.033
X9.543 Y12.12 Z0.1
G0 Z5.
X10.066 Y14.365
G1 Z1. F333.
Z0.1
X10.069 Y14.371 Z0.033 F50.
X10.08 Y14.391 Z-0.03
X10.098 Y14.422 Z-0.087
X10.121 Y14.463 Z-0.135
X10.149 Y14.513 Z-0.17
X10.181 Y14.568 Z-0.192
X10.213 Y14.626 Z-0.2
X10.361 Y14.887
G3 X10.248 Y15.296 I-0.261 J0.148
G2 X10.667 Y16.512 I0.322 J0.569 F10.
G1 X12.862 Y18.707
Y24.98
X11.252 Y26.59
X4.37
X1.49 Y23.71
X1.489 Y21.389
X1.485 Y21.34
X1.47 Y21.292
X1.447 Y21.248
X1.415 Y21.21
X0.306 Y20.1
G2 X-0.2 Y19.015 I-0.505 J-0.425
G1 X-1.52
G2 Y20.335 I0. J0.66
G1 X-0.2
X-0.178
X0.981 Y21.495
Y23.815
X0.986 Y23.865
X1.001 Y23.912
X1.024 Y23.956
X1.056 Y23.995
X4.085 Y27.024
X4.125 Y27.056
X4.171 Y27.08
X4.22 Y27.094
X4.272 Y27.098
X11.351
X11.402 Y27.094
X11.452 Y27.08
X11.497 Y27.056
X11.537 Y27.024
X13.296 Y25.265
X13.328 Y25.226
X13.351 Y25.182
X13.366 Y25.135
X13.37 Y25.085
Y18.604
X13.366 Y18.554
X13.352 Y18.506
X13.328 Y18.461
X13.296 Y18.422
X11.109 Y16.235
G2 X10.248 Y15.296 I-0.539 J-0.37
G3 X9.839 Y15.183 I-0.148 J-0.261 F50.
G1 X9.691 Y14.921
X9.658 Y14.863 Z-0.192
X9.627 Y14.808 Z-0.17
X9.599 Y14.759 Z-0.135
X9.576 Y14.717 Z-0.087
X9.558 Y14.686 Z-0.03
X9.547 Y14.667 Z0.033
X9.544 Y14.66 Z0.1
G0 Z5.
X8.21 Y15.756
G1 Z1. F333.
Z0.1
X8.208 Y15.763 Z0.033 F50.
X8.201 Y15.784 Z-0.03
X8.189 Y15.818 Z-0.087
X8.174 Y15.863 Z-0.135
X8.155 Y15.917 Z-0.17
X8.135 Y15.977 Z-0.192
X8.113 Y16.04 Z-0.2
X8.016 Y16.324
G3 X7.635 Y16.51 I-0.284 J-0.097
G1 X7.565 Y16.491 F10.
X7.493 Y16.479
X7.42 Y16.475
X6.1
G2 X5.468 Y17.328 I0. J0.66
G1 X4.156 Y18.64
G2 X4.004 Y19.002 I0.356 J0.362
G1 Y22.888
G2 X4.156 Y23.25 I0.508 J0.
G1 X5.319 Y24.413
G2 X5.681 Y24.565 I0.362 J-0.357
G1 X8.262
X8.334 Y24.56
X8.405 Y24.545
X8.473 Y24.521
X9.343 Y24.134
G2 X9.822 Y22.81 I0.239 J-0.662
X8.931 Y23.206 I-0.239 J0.662
G1 X8.159 Y23.548
X5.891
X5.02 Y22.678
Y19.212
X6.437 Y17.795
X7.42
G2 X7.635 Y16.51 I0. J-0.66
G3 X7.448 Y16.129 I0.097 J-0.284 F50.
G1 X7.545 Y15.845
X7.567 Y15.782 Z-0.192
X7.588 Y15.722 Z-0.17
X7.606 Y15.668 Z-0.135
X7.621 Y15.624 Z-0.087
X7.633 Y15.59 Z-0.03
X7.64 Y15.569 Z0.033
X7.643 Y15.562 Z0.1
G0 Z5.
X7.732 Y18.117
G1 Z1. F333.
Z0.1
Y18.124 Z0.033 F50.
X7.731 Y18.146 Z-0.03
Y18.182 Z-0.087
Y18.23 Z-0.135
X7.73 Y18.287 Z-0.17
Y18.35 Z-0.192
X7.729 Y18.417 Z-0.2
X7.727 Y18.717
G3 X7.425 Y19.015 I-0.3 J-0.002
G1 X7.42 F10.
X6.1
G2 Y20.335 I0. J0.66
G1 X7.42
G2 X7.425 Y19.015 I0. J-0.66
G3 X7.127 Y18.712 I0.002 J-0.3 F50.
G1 X7.129 Y18.412
X7.13 Y18.346 Z-0.192
Y18.282 Z-0.17
X7.131 Y18.225 Z-0.135
Y18.178 Z-0.087
Y18.142 Z-0.03
X7.132 Y18.12 Z0.033
Y18.112 Z0.1
G0 Z5.
X7.694 Y20.655
G1 Z1. F333.
Z0.1
G19 G3 Y20.955 Z-0.2 J0.3 K0. F50.
G1 Y21.255
G17 G3 X7.394 Y21.555 I-0.3 J0.
G1 X6.1 F10.
G2 Y22.875 I0. J0.66
G1 X7.42
G2 Y21.555 I0. J-0.66
G1 X7.394
G3 X7.094 Y21.255 I0. J-0.3 F50.
G1 Y20.955
G19 G2 Y20.655 Z0.1 J0. K0.3
G0 Z5.
X0.139 Y20.662
G1 Z1. F333.
Z0.1
X0.138 Y20.67 Z0.033 F50.
Y20.692 Z-0.03
X0.137 Y20.728 Z-0.087
X0.136 Y20.775 Z-0.135
X0.134 Y20.832 Z-0.17
X0.133 Y20.896 Z-0.192
X0.131 Y20.962 Z-0.2
X0.124 Y21.262
G17 G3 X-0.183 Y21.555 I-0.3 J-0.007
G1 X-0.2 F10.
X-1.52
G2 X-1.791 Y21.613 I0. J0.66
G1 X-2.816 Y20.588
X-2.861 Y20.548
X-2.912 Y20.512
X-2.966 Y20.483
X-3.035 Y20.457
X-3.108 Y20.442
X-3.182 Y20.437
X-6.777
X-13.344 Y13.871
X-14.017 Y13.197
Y-17.313
X-7.279 Y-24.051
X-2.167
G2 X-0.235 Y-22.923 I1.347 J-0.089
G1 X1.242 Y-21.447
Y-14.594
G2 X1.89 Y-13.467 I0.324 J0.564
X2.215 Y-14.012 I-0.324 J-0.564
G1 X2.24 Y-14.081
X2.254 Y-14.152
X2.258 Y-14.225
Y-21.647
G2 X2.109 Y-22.016 I-0.508 J-0.01
G1 X0.448 Y-23.677
G2 X-1.801 Y-25.067 I-1.268 J-0.463
G1 X-7.489
G2 X-7.851 Y-24.916 I0. J0.508
G1 X-14.882 Y-17.885
G2 X-15.033 Y-17.523 I0.357 J0.362
G1 Y13.403
G2 X-14.884 Y13.767 I0.508 J0.005
G1 X-7.334 Y21.317
G2 X-6.857 Y21.452 I0.359 J-0.359
G1 X-3.388 Y21.453
X-2.267 Y22.574
G2 X-1.944 Y22.722 I0.359 J-0.359
X-1.52 Y22.875 I0.424 J-0.507
G1 X-0.2
G2 X-0.183 Y21.555 I0. J-0.66
G3 X-0.476 Y21.248 I0.007 J-0.3 F50.
G1 X-0.469 Y20.948
X-0.467 Y20.881 Z-0.192
X-0.465 Y20.818 Z-0.17
X-0.464 Y20.761 Z-0.135
X-0.463 Y20.713 Z-0.087
X-0.462 Y20.677 Z-0.03
X-0.461 Y20.655 Z0.033
Y20.648 Z0.1
G0 Z5.
X-1.82 Y18.695
G1 Z1. F333.
Z0.1
G19 G2 Y18.395 Z-0.2 J-0.3 K0. F50.
G1 Y18.095
G17 G3 X-1.52 Y17.795 I0.3 J0.
G1 X-0.2 F10.
X-0.19
G2 X0.461 Y17.135 I-0.009 J-0.66
X-0.2 Y16.475 I-0.66 J0.
G1 X-1.52
G2 Y17.795 I0. J0.66
G3 X-1.22 Y18.095 I0. J0.3 F50.
G1 Y18.395
G19 G3 Y18.695 Z0.1 J0. K0.3
G0 Z5.
X-3.116 Y18.705
G1 Z1. F333.
Z0.1
G18 G3 X-3.416 Z-0.2 I-0.3 K0. F50.
G1 X-3.716
G17 G3 X-4.016 Y18.405 I0. J-0.3
G1 Y17.751 F10.
X-4.661
X-5.324
Y19.059
X-4.016
Y18.405
G3 X-3.716 Y18.105 I0.3 J0. F50.
G1 X-3.416
G18 G2 X-3.116 Z0.1 I0. K0.3
G0 Z5.
X-3.618 Y17.048
G1 Z1. F333.
Z0.1
X-3.624 Y17.043 Z0.033 F50.
X-3.642 Y17.03 Z-0.03
X-3.67 Y17.008 Z-0.087
X-3.708 Y16.979 Z-0.135
X-3.753 Y16.944 Z-0.17
X-3.803 Y16.906 Z-0.192
X-3.856 Y16.865 Z-0.2
X-4.095 Y16.683
G17 G3 X-4.151 Y16.262 I0.182 J-0.238
G2 X-4.016 Y15.865 I-0.519 J-0.397 F10.
X-5.324 I-0.654 J0.
X-4.67 Y16.519 I0.654 J0.
G1 X-4.661
G2 X-4.151 Y16.262 I-0.009 J-0.654
G3 X-3.73 Y16.207 I0.238 J0.182 F50.
G1 X-3.492 Y16.389
X-3.439 Y16.429 Z-0.192
X-3.388 Y16.468 Z-0.17
X-3.343 Y16.502 Z-0.135
X-3.306 Y16.531 Z-0.087
X-3.277 Y16.553 Z-0.03
X-3.26 Y16.567 Z0.033
X-3.254 Y16.571 Z0.1
G0 Z5.
X-2.854 Y15.459
G1 Z1. F333.
Z0.1
X-2.848 Y15.454 Z0.033 F50.
X-2.832 Y15.439 Z-0.03
X-2.806 Y15.414 Z-0.087
X-2.772 Y15.381 Z-0.135
X-2.731 Y15.342 Z-0.17
X-2.685 Y15.298 Z-0.192
X-2.637 Y15.252 Z-0.2
X-2.421 Y15.044
G3 X-1.997 Y15.052 I0.208 J0.216
G2 X-1.52 Y15.255 I0.476 J-0.457 F10.
G1 X-0.2
G2 X-0.034 Y13.956 I0. J-0.66
G1 Y12.694
G2 X-0.2 Y11.395 I-0.165 J-0.639
G1 X-1.418
X-2.562 Y10.251
Y-6.308
X-1.266 Y-7.605
X-0.2
G2 X-0.034 Y-8.904 I0. J-0.66
G1 Y-10.106
X6.252
Y-9.573
X6.258 Y-9.493
X6.277 Y-9.415
X6.308 Y-9.341
X6.277 Y-9.267
X6.258 Y-9.189
X6.252 Y-9.109
Y-8.925
X6.1
G2 Y-7.605 I0. J0.66
G1 X7.42
G2 X7.842 Y-8.773 I0. J-0.66
G1 X10.57
G2 X11.034 Y-9.074 I0. J-0.508
X10.106 Y-9.996 I-0.464 J-0.461
X9.967 Y-9.789 I0.464 J0.461
G1 X7.268
Y-10.145
X7.42
G2 Y-11.465 I0. J-0.66
G1 X6.1
G2 X5.521 Y-11.123 I0. J0.66
G1 X3.991
Y-22.803
G2 X4.369 Y-25.477 I0.189 J-1.337
X2.975 Y-23.531 I-0.189 J1.337
G1 Y-11.123
X0.379
G2 X-0.2 Y-11.465 I-0.579 J0.318
G1 X-1.479
X-2.955 Y-12.942
Y-13.281
X-2.96 Y-13.331
X-2.975 Y-13.379
X-2.999 Y-13.423
X-3.031 Y-13.462
X-4.033 Y-14.465
G2 X-4.583 Y-15.263 I-0.636 J-0.15
X-5.324 Y-14.638 I-0.087 J0.648
G1 X-12.279 Y-7.683
X-12.311 Y-7.644
X-12.334 Y-7.6
X-12.349 Y-7.553
X-12.354 Y-7.503
Y-0.896
G2 X-13.052 Y-0.137 I0.064 J0.759
G1 Y1.387
G2 X-12.354 Y2.146 I0.762 J0.
G1 Y2.914
G2 X-13.052 Y3.673 I0.064 J0.759
G1 Y5.197
G2 X-12.354 Y5.956 I0.762 J0.
G1 Y6.724
G2 X-13.052 Y7.483 I0.064 J0.759
G1 Y9.007
G2 X-12.354 Y9.766 I0.762 J0.
G1 Y10.534
G2 X-13.052 Y11.293 I0.063 J0.759
G1 Y12.817
G2 X-11.528 I0.762 J0.
G1 Y11.293
G2 X-11.845 Y10.674 I-0.762 J0.
G1 Y9.626
G2 X-11.528 Y9.007 I-0.444 J-0.619
G1 Y7.483
G2 X-11.845 Y6.864 I-0.762 J0.
G1 Y5.816
G2 X-11.528 Y5.197 I-0.444 J-0.619
G1 Y3.673
G2 X-11.845 Y3.054 I-0.762 J0.
G1 Y2.006
G2 X-11.528 Y1.387 I-0.444 J-0.619
G1 Y-0.137
G2 X-11.845 Y-0.756 I-0.762 J0.
G1 Y-7.398
X-5.111 Y-14.132
G2 X-4.338 Y-14.051 I0.441 J-0.483
G1 X-3.464 Y-13.176
X-3.463 Y-12.837
X-3.459 Y-12.787
X-3.444 Y-12.74
X-3.421 Y-12.696
X-3.389 Y-12.657
X-1.995 Y-11.264
G2 X-1.52 Y-10.145 I0.475 J0.459
G1 X-1.051
Y-9.003
G2 X-1.364 Y-8.925 I-0.041 J0.506
G1 X-1.52
G2 X-2.169 Y-8.138 I0. J0.66
G1 X-3.429 Y-6.878
G2 X-3.578 Y-6.514 I0.359 J0.359
G1 Y10.457
G2 X-3.429 Y10.82 I0.508 J0.005
G1 X-2.181 Y12.069
G2 X-1.52 Y12.715 I0.66 J-0.014
G1 X-1.051
Y13.935
X-1.52
G2 X-1.997 Y15.052 I0. J0.66
G3 X-2.005 Y15.477 I-0.216 J0.208 F50.
G1 X-2.222 Y15.684
X-2.27 Y15.731 Z-0.192
X-2.316 Y15.775 Z-0.17
X-2.357 Y15.814 Z-0.135
X-2.391 Y15.847 Z-0.087
X-2.417 Y15.872 Z-0.03
X-2.433 Y15.887 Z0.033
X-2.438 Y15.892 Z0.1
G0 Z5.
X-3.761 Y14.62
G1 Z1. F333.
Z0.1
X-3.766 Y14.615 Z0.033 F50.
X-3.782 Y14.6 Z-0.03
X-3.808 Y14.575 Z-0.087
X-3.842 Y14.542 Z-0.135
X-3.883 Y14.502 Z-0.17
X-3.928 Y14.458 Z-0.192
X-3.976 Y14.412 Z-0.2
X-4.192 Y14.204
G3 X-4.2 Y13.779 I0.208 J-0.216
G2 X-5.14 Y12.871 I-0.47 J-0.454 F10.
X-5.324 Y13.325 I0.47 J0.454
X-4.679 Y13.979 I0.654 J0.
G1 X-4.67
G2 X-4.2 Y13.779 I0. J-0.654
G3 X-3.775 Y13.772 I0.216 J0.208 F50.
G1 X-3.56 Y13.98
X-3.512 Y14.027 Z-0.192
X-3.466 Y14.071 Z-0.17
X-3.425 Y14.11 Z-0.135
X-3.391 Y14.143 Z-0.087
X-3.365 Y14.168 Z-0.03
X-3.349 Y14.184 Z0.033
X-3.344 Y14.189 Z0.1
G0 Z5.
X-3.904 Y12.17
G1 Z1. F333.
Z0.1
X-3.909 Y12.164 Z0.033 F50.
X-3.923 Y12.147 Z-0.03
X-3.946 Y12.12 Z-0.087
X-3.977 Y12.083 Z-0.135
X-4.013 Y12.04 Z-0.17
X-4.054 Y11.991 Z-0.192
X-4.096 Y11.94 Z-0.2
X-4.289 Y11.71
G3 X-4.251 Y11.287 I0.23 J-0.192
G2 X-5.089 Y10.283 I-0.419 J-0.502 F10.
X-5.312 Y10.912 I0.419 J0.502
G1 X-6.321
X-6.371 Y10.917
X-6.419 Y10.932
X-6.463 Y10.955
X-6.501 Y10.987
X-6.509 Y10.995
G2 X-7.972 Y11.293 I-0.701 J0.298
G1 Y12.817
G2 X-6.448 I0.762 J0.
G1 Y11.652
X-6.216 Y11.42
X-4.988
X-4.938 Y11.415
X-4.89 Y11.401
G2 X-4.251 Y11.287 I0.22 J-0.616
G3 X-3.828 Y11.325 I0.192 J0.23 F50.
G1 X-3.636 Y11.555
X-3.593 Y11.606 Z-0.192
X-3.553 Y11.655 Z-0.17
X-3.516 Y11.699 Z-0.135
X-3.486 Y11.735 Z-0.087
X-3.463 Y11.763 Z-0.03
X-3.448 Y11.78 Z0.033
X-3.444 Y11.785 Z0.1
G0 Z5.
X-1.735 Y11.075
G1 Z1. F333.
Z0.1
G19 G2 Y10.775 Z-0.2 J-0.3 K0. F50.
G1 Y10.475
G17 G3 X-1.435 Y10.175 I0.3 J0.
G1 X-0.2 F10.
G2 X0.428 Y9.72 I0. J-0.66
X1.662 Y9.31 I0.617 J-0.205
X0.428 I-0.617 J0.205
X-0.2 Y8.855 I-0.628 J0.205
G1 X-1.52
G2 Y10.175 I0. J0.66
G1 X-1.435
G3 X-1.135 Y10.475 I0. J0.3 F50.
G1 Y10.775
G19 G3 Y11.075 Z0.1 J0. K0.3
G0 Z5.
X-4.477 Y9.816
G1 Z1. F333.
Z0.1
X-4.479 Y9.809 Z0.033 F50.
X-4.486 Y9.788 Z-0.03
X-4.497 Y9.754 Z-0.087
X-4.511 Y9.708 Z-0.135
X-4.529 Y9.654 Z-0.17
X-4.548 Y9.594 Z-0.192
X-4.569 Y9.53 Z-0.2
X-4.661 Y9.245
G17 G3 X-4.468 Y8.867 I0.285 J-0.092
G2 X-4.872 Y7.623 I-0.202 J-0.622 F10.
X-5.324 Y8.245 I0.202 J0.622
G1 X-6.448
Y7.483
G2 X-7.972 I-0.762 J0.
G1 Y9.007
G2 X-6.448 I0.762 J0.
G1 Y8.753
X-5.082
G2 X-4.468 Y8.867 I0.412 J-0.508
G3 X-4.091 Y9.06 I0.092 J0.285 F50.
G1 X-3.998 Y9.346
X-3.978 Y9.409 Z-0.192
X-3.958 Y9.469 Z-0.17
X-3.941 Y9.524 Z-0.135
X-3.926 Y9.569 Z-0.087
X-3.915 Y9.603 Z-0.03
X-3.908 Y9.624 Z0.033
X-3.906 Y9.631 Z0.1
G0 Z5.
X-5.832 Y6.779
G1 Z1. F333.
Z0.1
X-5.828 Y6.773 Z0.033 F50.
X-5.815 Y6.755 Z-0.03
X-5.794 Y6.726 Z-0.087
X-5.765 Y6.688 Z-0.135
X-5.732 Y6.642 Z-0.17
X-5.694 Y6.591 Z-0.192
X-5.655 Y6.537 Z-0.2
X-5.477 Y6.296
G3 X-5.057 Y6.232 I0.242 J0.178
G2 X-4.283 Y5.178 I0.387 J-0.527 F10.
X-4.988 Y5.133 I-0.387 J0.527
G1 X-6.216
X-6.448 Y4.901
Y3.673
G2 X-7.972 I-0.762 J0.
G1 Y5.197
G2 X-6.529 Y5.539 I0.762 J0.
G1 X-6.501 Y5.567
X-6.462 Y5.599
X-6.418 Y5.622
X-6.371 Y5.637
X-6.321 Y5.642
X-5.321
G2 X-5.057 Y6.232 I0.651 J0.063
G3 X-4.994 Y6.651 I-0.178 J0.242 F50.
G1 X-5.171 Y6.893
X-5.211 Y6.947 Z-0.192
X-5.248 Y6.998 Z-0.17
X-5.282 Y7.044 Z-0.135
X-5.31 Y7.082 Z-0.087
X-5.331 Y7.111 Z-0.03
X-5.345 Y7.129 Z0.033
X-5.349 Y7.135 Z0.1
G0 Z5.
X-5.895 Y4.167
G1 Z1. F333.
Z0.1
X-5.89 Y4.161 Z0.033 F50.
X-5.876 Y4.144 Z-0.03
X-5.853 Y4.117 Z-0.087
X-5.823 Y4.08 Z-0.135
X-5.786 Y4.037 Z-0.17
X-5.746 Y3.988 Z-0.192
X-5.703 Y3.937 Z-0.2
X-5.511 Y3.706
G3 X-5.089 Y3.668 I0.231 J0.192
G2 X-4.251 Y2.662 I0.419 J-0.503 F10.
X-5.111 Y2.682 I-0.419 J0.503
G1 X-6.448 Y1.345
Y-0.137
G2 X-7.972 I-0.762 J0.
G1 Y1.387
G2 X-6.63 Y1.881 I0.762 J0.
G1 X-5.324 Y3.188
G2 X-5.089 Y3.668 I0.654 J-0.023
G3 X-5.05 Y4.09 I-0.192 J0.231 F50.
G1 X-5.242 Y4.321
X-5.285 Y4.372 Z-0.192
X-5.325 Y4.421 Z-0.17
X-5.362 Y4.464 Z-0.135
X-5.392 Y4.501 Z-0.087
X-5.415 Y4.528 Z-0.03
X-5.429 Y4.545 Z0.033
X-5.434 Y4.551 Z0.1
G0 Z5.
X-2.515 Y5.674
G1 Z1. F333.
Z0.1
X-2.511 Y5.668 Z0.033 F50.
X-2.501 Y5.648 Z-0.03
X-2.484 Y5.616 Z-0.087
X-2.462 Y5.574 Z-0.135
X-2.435 Y5.524 Z-0.17
X-2.406 Y5.468 Z-0.192
X-2.375 Y5.409 Z-0.2
X-2.234 Y5.144
G3 X-1.829 Y5.019 I0.265 J0.14
G2 X-1.52 Y5.095 I0.309 J-0.584 F10.
G1 X-0.2
G2 Y3.775 I0. J-0.66
G1 X-1.52
G2 X-2.181 Y4.426 I0. J0.66
G1 Y4.435
G2 X-1.829 Y5.019 I0.66 J0.
G3 X-1.704 Y5.424 I-0.14 J0.265 F50.
G1 X-1.844 Y5.69
X-1.875 Y5.749 Z-0.192
X-1.905 Y5.805 Z-0.17
X-1.932 Y5.855 Z-0.135
X-1.954 Y5.897 Z-0.087
X-1.97 Y5.928 Z-0.03
X-1.981 Y5.948 Z0.033
X-1.984 Y5.955 Z0.1
G0 Z5.
X-4.477 Y2.196
G1 Z1. F333.
Z0.1
X-4.479 Y2.189 Z0.033 F50.
X-4.486 Y2.168 Z-0.03
X-4.497 Y2.134 Z-0.087
X-4.511 Y2.088 Z-0.135
X-4.529 Y2.034 Z-0.17
X-4.548 Y1.974 Z-0.192
X-4.569 Y1.91 Z-0.2
X-4.661 Y1.625
G3 X-4.468 Y1.247 I0.285 J-0.092
G2 X-4.67 Y-0.029 I-0.202 J-0.622 F10.
G1 X-4.679
G2 X-5.324 Y0.625 I0.009 J0.654
X-4.468 Y1.247 I0.654 J0.
G3 X-4.091 Y1.44 I0.092 J0.285 F50.
G1 X-3.998 Y1.726
X-3.978 Y1.789 Z-0.192
X-3.958 Y1.849 Z-0.17
X-3.941 Y1.904 Z-0.135
X-3.926 Y1.949 Z-0.087
X-3.915 Y1.983 Z-0.03
X-3.908 Y2.004 Z0.033
X-3.906 Y2.011 Z0.1
G0 Z5.
X-4.477 Y-0.344
G1 Z1. F333.
Z0.1
X-4.479 Y-0.351 Z0.033 F50.
X-4.486 Y-0.372 Z-0.03
X-4.497 Y-0.406 Z-0.087
X-4.511 Y-0.452 Z-0.135
X-4.529 Y-0.506 Z-0.17
X-4.548 Y-0.566 Z-0.192
X-4.569 Y-0.63 Z-0.2
X-4.661 Y-0.915
G3 X-4.468 Y-1.293 I0.285 J-0.092
G2 X-4.016 Y-1.915 I-0.202 J-0.622 F10.
G1 Y-1.924
G2 X-4.67 Y-2.569 I-0.654 J0.009
X-5.316 Y-1.813 I0. J0.654
X-4.468 Y-1.293 I0.646 J-0.102
G3 X-4.091 Y-1.1 I0.092 J0.285 F50.
G1 X-3.998 Y-0.814
X-3.978 Y-0.751 Z-0.192
X-3.958 Y-0.691 Z-0.17
X-3.941 Y-0.636 Z-0.135
X-3.926 Y-0.591 Z-0.087
X-3.915 Y-0.557 Z-0.03
X-3.908 Y-0.536 Z0.033
X-3.906 Y-0.529 Z0.1
G0 Z5.
X-2.252 Y-1.775
G1 Z1. F333.
Z0.1
X-2.25 Y-1.782 Z0.033 F50.
X-2.244 Y-1.803 Z-0.03
X-2.233 Y-1.837 Z-0.087
X-2.22 Y-1.883 Z-0.135
X-2.204 Y-1.937 Z-0.17
X-2.186 Y-1.998 Z-0.192
X-2.167 Y-2.062 Z-0.2
X-2.081 Y-2.35
G3 X-1.708 Y-2.552 I0.288 J0.085
G1 X-1.615 Y-2.531 F10.
X-1.52 Y-2.525
X-0.2
G2 Y-3.845 I0. J-0.66
G1 X-1.52
G2 X-1.708 Y-2.552 I0. J0.66
G3 X-1.506 Y-2.179 I-0.085 J0.288 F50.
G1 X-1.592 Y-1.891
X-1.611 Y-1.827 Z-0.192
X-1.629 Y-1.767 Z-0.17
X-1.645 Y-1.712 Z-0.135
X-1.658 Y-1.666 Z-0.087
X-1.668 Y-1.632 Z-0.03
X-1.675 Y-1.611 Z0.033
X-1.677 Y-1.604 Z0.1
G0 Z5.
X-1.832 Y-4.167
G1 Z1. F333.
Z0.1
Y-4.174 Z0.033 F50.
X-1.831 Y-4.196 Z-0.03
Y-4.232 Z-0.087
Y-4.28 Z-0.135
X-1.83 Y-4.337 Z-0.17
Y-4.4 Z-0.192
X-1.829 Y-4.467 Z-0.2
X-1.827 Y-4.767
G3 X-1.525 Y-5.065 I0.3 J0.002
G1 X-1.52 F10.
X-0.2
X-0.191
G2 X0.428 Y-5.52 I-0.009 J-0.66
X1.662 Y-5.93 I0.617 J-0.205
X0.428 I-0.617 J0.205
X-0.2 Y-6.385 I-0.628 J0.205
G1 X-1.52
G2 X-1.525 Y-5.065 I0. J0.66
G3 X-1.227 Y-4.762 I-0.002 J0.3 F50.
G1 X-1.229 Y-4.462
X-1.23 Y-4.396 Z-0.192
Y-4.332 Z-0.17
X-1.231 Y-4.275 Z-0.135
Y-4.228 Z-0.087
Y-4.192 Z-0.03
X-1.232 Y-4.17 Z0.033
Y-4.162 Z0.1
G0 Z5.
X-3.602 Y-5.623
G1 Z1. F333.
Z0.1
X-3.606 Y-5.616 Z0.033 F50.
X-3.617 Y-5.597 Z-0.03
X-3.636 Y-5.567 Z-0.087
X-3.661 Y-5.526 Z-0.135
X-3.69 Y-5.478 Z-0.17
X-3.724 Y-5.424 Z-0.192
X-3.759 Y-5.367 Z-0.2
X-3.915 Y-5.111
G3 X-4.328 Y-5.012 I-0.256 J-0.157
G2 X-5.012 Y-3.898 I-0.342 J0.557 F10.
X-4.67 Y-3.801 I0.342 J-0.557
G1 X-4.661
G2 X-4.016 Y-4.455 I-0.009 J-0.654
X-4.328 Y-5.012 I-0.654 J0.
G3 X-4.427 Y-5.425 I0.157 J-0.256 F50.
G1 X-4.27 Y-5.681
X-4.235 Y-5.738 Z-0.192
X-4.202 Y-5.792 Z-0.17
X-4.172 Y-5.84 Z-0.135
X-4.147 Y-5.881 Z-0.087
X-4.129 Y-5.911 Z-0.03
X-4.117 Y-5.93 Z0.033
X-4.113 Y-5.936 Z0.1
G0 Z5.
X-4.477 Y-5.424
G1 Z1. F333.
Z0.1
X-4.479 Y-5.431 Z0.033 F50.
X-4.486 Y-5.452 Z-0.03
X-4.497 Y-5.486 Z-0.087
X-4.511 Y-5.532 Z-0.135
X-4.529 Y-5.586 Z-0.17
X-4.548 Y-5.646 Z-0.192
X-4.569 Y-5.71 Z-0.2
X-4.661 Y-5.995
G3 X-4.468 Y-6.373 I0.285 J-0.092
G2 X-4.67 Y-7.649 I-0.202 J-0.622 F10.
X-5.132 Y-7.457 I0. J0.654
X-5.324 Y-6.995 I0.463 J0.462
X-4.468 Y-6.373 I0.654 J0.
G3 X-4.091 Y-6.18 I0.092 J0.285 F50.
G1 X-3.998 Y-5.894
X-3.978 Y-5.831 Z-0.192
X-3.958 Y-5.771 Z-0.17
X-3.941 Y-5.716 Z-0.135
X-3.926 Y-5.671 Z-0.087
X-3.915 Y-5.637 Z-0.03
X-3.908 Y-5.616 Z0.033
X-3.906 Y-5.609 Z0.1
G0 Z5.
X-3.855 Y-8.178
G1 Z1. F333.
Z0.1
X-3.86 Y-8.184 Z0.033 F50.
X-3.875 Y-8.2 Z-0.03
X-3.899 Y-8.227 Z-0.087
X-3.931 Y-8.262 Z-0.135
X-3.969 Y-8.304 Z-0.17
X-4.011 Y-8.352 Z-0.192
X-4.056 Y-8.401 Z-0.2
X-4.256 Y-8.625
G3 X-4.233 Y-9.048 I0.223 J-0.2
G2 X-5.107 Y-10.022 I-0.437 J-0.487 F10.
X-5.293 Y-9.335 I0.437 J0.487
G1 X-9.612 Y-5.016
X-9.644 Y-4.977
X-9.667 Y-4.933
X-9.682 Y-4.886
X-9.686 Y-4.836
X-9.687 Y-0.896
G2 X-10.512 Y-0.137 I-0.063 J0.759
G1 Y1.387
G2 X-10.131 Y2.047 I0.762 J0.
G1 Y3.013
G2 X-10.512 Y3.673 I0.381 J0.66
G1 Y5.197
G2 X-10.131 Y5.857 I0.762 J0.
G1 Y6.823
G2 X-10.512 Y7.483 I0.381 J0.66
G1 Y9.007
G2 X-10.131 Y9.667 I0.762 J0.
G1 Y10.633
G2 X-10.512 Y11.293 I0.381 J0.66
G1 Y12.817
G2 X-8.988 I0.762 J0.
G1 Y11.293
G2 X-9.623 Y10.542 I-0.762 J0.
G1 Y9.758
G2 X-8.988 Y9.007 I-0.127 J-0.751
G1 Y7.483
G2 X-9.623 Y6.732 I-0.762 J0.
G1 Y5.948
G2 X-8.988 Y5.197 I-0.127 J-0.751
G1 Y3.673
G2 X-9.623 Y2.922 I-0.762 J0.
G1 Y2.138
G2 X-8.988 Y1.387 I-0.127 J-0.751
G1 Y-0.137
G2 X-9.178 Y-0.641 I-0.762 J0.
G1 Y-4.731
X-4.96 Y-8.949
G2 X-4.233 Y-9.048 I0.29 J-0.586
G3 X-3.81 Y-9.025 I0.2 J0.223 F50.
G1 X-3.609 Y-8.802
X-3.565 Y-8.752 Z-0.192
X-3.522 Y-8.705 Z-0.17
X-3.484 Y-8.663 Z-0.135
X-3.453 Y-8.628 Z-0.087
X-3.429 Y-8.601 Z-0.03
X-3.414 Y-8.584 Z0.033
X-3.409 Y-8.579 Z0.1
G0 Z5.
X-3.761 Y-10.78
G1 Z1. F333.
Z0.1
X-3.766 Y-10.785 Z0.033 F50.
X-3.782 Y-10.8 Z-0.03
X-3.808 Y-10.825 Z-0.087
X-3.842 Y-10.858 Z-0.135
X-3.883 Y-10.898 Z-0.17
X-3.928 Y-10.942 Z-0.192
X-3.976 Y-10.988 Z-0.2
X-4.192 Y-11.196
G3 X-4.2 Y-11.621 I0.208 J-0.216
G2 X-4.016 Y-12.075 I-0.47 J-0.454 F10.
X-5.324 I-0.654 J0.
X-4.67 Y-11.421 I0.654 J0.
G1 X-4.666
G2 X-4.2 Y-11.621 I-0.004 J-0.654
G3 X-3.775 Y-11.628 I0.216 J0.208 F50.
G1 X-3.56 Y-11.42
X-3.512 Y-11.373 Z-0.192
X-3.466 Y-11.329 Z-0.17
X-3.425 Y-11.29 Z-0.135
X-3.391 Y-11.257 Z-0.087
X-3.365 Y-11.232 Z-0.03
X-3.349 Y-11.216 Z0.033
X-3.344 Y-11.211 Z0.1
G0 Z5.
X-1.711 Y-11.785
G1 Z1. F333.
Z0.1
G19 G2 Y-12.085 Z-0.2 J-0.3 K0. F50.
G1 Y-12.385
G17 G3 X-1.411 Y-12.685 I0.3 J0.
G1 X-0.2 F10.
G2 Y-14.005 I0. J-0.66
G1 X-1.291
X-2.587 Y-15.302
Y-18.641
G2 X-2.739 Y-19.003 I-0.508 J0.
G1 X-4.216 Y-20.48
Y-22.059
G2 X-5.232 Y-23.034 I-0.508 J-0.487
Y-22.059 I0.508 J0.487
G1 Y-20.27
G2 X-5.081 Y-19.908 I0.508 J0.
G1 X-3.603 Y-18.431
Y-15.096
G2 X-3.454 Y-14.732 I0.508 J0.005
G1 X-2.172 Y-13.45
G2 X-1.52 Y-12.685 I0.652 J0.105
G1 X-1.411
G3 X-1.111 Y-12.385 I0. J0.3 F50.
G1 Y-12.085
G19 G3 Y-11.785 Z0.1 J0. K0.3
G0 Z5.
X-1.338 Y-14.325
G1 Z1. F333.
Z0.1
G2 Y-14.625 Z-0.2 J-0.3 K0. F50.
G1 Y-14.925
G17 G3 X-1.038 Y-15.225 I0.3 J0.
G1 X-0.2 F10.
X-0.19
G2 X0.461 Y-15.885 I-0.009 J-0.66
X-0.2 Y-16.545 I-0.66 J0.
G1 X-1.52
G2 Y-15.225 I0. J0.66
G1 X-1.038
G3 X-0.738 Y-14.925 I0. J0.3 F50.
G1 Y-14.625
G19 G3 Y-14.325 Z0.1 J0. K0.3
G0 Z5.
X-0.5 Y-16.865
G1 Z1. F333.
Z0.1
G2 Y-17.165 Z-0.2 J-0.3 K0. F50.
G1 Y-17.465
G17 G3 X-0.2 Y-17.765 I0.3 J0.
G2 Y-19.085 I0. J-0.66 F10.
G1 X-1.52
G2 Y-17.765 I0. J0.66
G1 X-0.2
G3 X0.1 Y-17.465 I0. J0.3 F50.
G1 Y-17.165
G19 G3 Y-16.865 Z0.1 J0. K0.3
G0 Z5.
X-3.63 Y-18.348
G1 Z1. F333.
Z0.1
X-3.634 Y-18.342 Z0.033 F50.
X-3.645 Y-18.323 Z-0.03
X-3.663 Y-18.292 Z-0.087
X-3.687 Y-18.251 Z-0.135
X-3.716 Y-18.202 Z-0.17
X-3.748 Y-18.147 Z-0.192
X-3.781 Y-18.089 Z-0.2
X-3.932 Y-17.829
G17 G3 X-4.342 Y-17.721 I-0.259 J-0.151
G2 X-4.998 Y-16.589 I-0.328 J0.566 F10.
X-4.67 Y-16.501 I0.328 J-0.566
G1 X-4.664
G2 X-4.016 Y-17.155 I-0.006 J-0.654
X-4.342 Y-17.721 I-0.654 J0.
G3 X-4.451 Y-18.131 I0.151 J-0.259 F50.
G1 X-4.3 Y-18.39
X-4.266 Y-18.448 Z-0.192
X-4.235 Y-18.503 Z-0.17
X-4.206 Y-18.552 Z-0.135
X-4.182 Y-18.593 Z-0.087
X-4.164 Y-18.624 Z-0.03
X-4.153 Y-18.643 Z0.033
X-4.149 Y-18.65 Z0.1
G0 Z5.
X-5.426 Y-21.704
G1 Z1. F333.
Z0.1
X-5.429 Y-21.698 Z0.033 F50.
X-5.44 Y-21.679 Z-0.03
X-5.458 Y-21.647 Z-0.087
X-5.481 Y-21.606 Z-0.135
X-5.509 Y-21.556 Z-0.17
X-5.54 Y-21.501 Z-0.192
X-5.573 Y-21.443 Z-0.2
X-5.72 Y-21.182
G3 X-6.129 Y-21.068 I-0.261 J-0.147
G2 X-6.767 Y-19.935 I-0.319 J0.566 F10.
X-6.129 Y-21.068 I0.319 J-0.566
G3 X-6.243 Y-21.476 I0.147 J-0.261 F50.
G1 X-6.096 Y-21.738
X-6.063 Y-21.796 Z-0.192
X-6.032 Y-21.851 Z-0.17
X-6.004 Y-21.901 Z-0.135
X-5.98 Y-21.942 Z-0.087
X-5.963 Y-21.973 Z-0.03
X-5.952 Y-21.992 Z0.033
X-5.948 Y-21.999 Z0.1
G0 Z5.
X-5.321 Y-23.379
G1 Z1. F333.
Z0.1
X-5.327 Y-23.374 Z0.033 F50.
X-5.343 Y-23.36 Z-0.03
X-5.37 Y-23.336 Z-0.087
X-5.406 Y-23.305 Z-0.135
X-5.449 Y-23.267 Z-0.17
X-5.496 Y-23.225 Z-0.192
X-5.546 Y-23.181 Z-0.2
X-5.772 Y-22.983
G3 X-6.195 Y-23.011 I-0.198 J-0.225
G2 X-7.253 Y-22.082 I-0.529 J0.465 F10.
X-6.195 Y-23.011 I0.529 J-0.465
G3 X-6.168 Y-23.434 I0.225 J-0.198 F50.
G1 X-5.942 Y-23.632
X-5.892 Y-23.676 Z-0.192
X-5.844 Y-23.718 Z-0.17
X-5.802 Y-23.755 Z-0.135
X-5.766 Y-23.787 Z-0.087
X-5.739 Y-23.81 Z-0.03
X-5.722 Y-23.825 Z0.033
X-5.717 Y-23.83 Z0.1
G0 Z5.
X-12.895 Y-26.447
G1 Z1. F333.
Z0.1
G19 G2 Y-26.747 Z-0.2 J-0.3 K0. F50.
G1 Y-27.047
G17 G3 X-12.595 Y-27.347 I0.3 J0.
G1 X15.078 F10.
Y27.676
X-15.567
Y-27.347
X-12.595
G3 X-12.295 Y-27.047 I0. J0.3 F50.
G1 Y-26.747
G19 G3 Y-26.447 Z0.1 J0. K0.3
G0 Z5.
X4.562 Y-22.685
G1 Z1. F333.
Z0.1
X4.567 Y-22.679 Z0.033 F50.
X4.583 Y-22.664 Z-0.03
X4.608 Y-22.638 Z-0.087
X4.641 Y-22.605 Z-0.135
X4.682 Y-22.564 Z-0.17
X4.727 Y-22.52 Z-0.192
X4.774 Y-22.472 Z-0.2
X4.986 Y-22.26
G17 G3 Y-21.836 I-0.212 J0.212
G1 X4.612 Y-21.462 F10.
X4.58 Y-21.424
X4.557 Y-21.38
X4.542 Y-21.332
X4.537 Y-21.282
Y-17.726
X4.542 Y-17.677
X4.557 Y-17.629
X4.581 Y-17.585
X4.613 Y-17.546
X5.728 Y-16.431
G2 X6.1 Y-15.225 I0.372 J0.546
G1 X7.42
G2 Y-16.545 I0. J-0.66
G1 X6.332
X5.046 Y-17.832
Y-21.177
X8.643 Y-24.775
X12.538
Y3.06
X10.547 Y5.051
G2 X10.593 Y6.359 I0.023 J0.654
X11.053 Y5.264 I-0.023 J-0.654
G1 X12.972 Y3.345
X13.004 Y3.306
X13.027 Y3.262
X13.042 Y3.215
X13.047 Y3.165
Y-25.029
G2 X12.792 Y-25.283 I-0.254 J0.
G1 X8.538
X8.488 Y-25.278
X8.44 Y-25.263
X8.396 Y-25.24
X8.358 Y-25.208
X4.986 Y-21.836
G3 X4.562 I-0.212 J-0.212 F50.
G1 X4.349 Y-22.048
X4.302 Y-22.095 Z-0.192
X4.257 Y-22.14 Z-0.17
X4.217 Y-22.18 Z-0.135
X4.184 Y-22.214 Z-0.087
X4.158 Y-22.239 Z-0.03
X4.143 Y-22.255 Z0.033
X4.137 Y-22.26 Z0.1
G0 Z5.
X6.954 Y-21.313
G1 Z1. F333.
Z0.1
X6.959 Y-21.318 Z0.033 F50.
X6.975 Y-21.334 Z-0.03
X7. Y-21.359 Z-0.087
X7.034 Y-21.393 Z-0.135
X7.074 Y-21.433 Z-0.17
X7.119 Y-21.478 Z-0.192
X7.166 Y-21.525 Z-0.2
X7.378 Y-21.737
G3 X7.802 I0.212 J0.212
G2 X8.3 Y-21.531 I0.498 J-0.498 F10.
X9.004 Y-22.226 I0. J-0.704
G1 Y-22.235
G2 X7.596 I-0.704 J0.
X7.802 Y-21.737 I0.704 J0.
G3 Y-21.313 I-0.212 J0.212 F50.
G1 X7.59 Y-21.101
X7.543 Y-21.054 Z-0.192
X7.498 Y-21.009 Z-0.17
X7.458 Y-20.969 Z-0.135
X7.424 Y-20.935 Z-0.087
X7.399 Y-20.91 Z-0.03
X7.383 Y-20.894 Z0.033
X7.378 Y-20.889 Z0.1
G0 Z5.
X7.004 Y-19.985
G1 Z1. F333.
Z0.1
G19 G3 Y-19.685 Z-0.2 J0.3 K0. F50.
G1 Y-19.385
G17 G3 X6.704 Y-19.085 I-0.3 J0.
G1 X6.1 F10.
G2 Y-17.765 I0. J0.66
G1 X7.42
G2 Y-19.085 I0. J-0.66
G1 X6.704
G3 X6.404 Y-19.385 I0. J-0.3 F50.
G1 Y-19.685
G19 G2 Y-19.985 Z0.1 J0. K0.3
G0 Z5.
X8.692 Y-20.536
G1 Z1. F333.
Z0.1
X8.7 Y-20.537 Z0.033 F50.
X8.722 Y-20.538 Z-0.03
X8.757 Y-20.541 Z-0.087
X8.805 Y-20.544 Z-0.135
X8.861 Y-20.548 Z-0.17
X8.925 Y-20.552 Z-0.192
X8.991 Y-20.557 Z-0.2
X9.291 Y-20.577
G17 G3 X9.61 Y-20.298 I0.021 J0.299
G2 X10.907 Y-20.387 I0.648 J-0.044 F10.
X9.61 Y-20.298 I-0.648 J0.044
G3 X9.332 Y-19.978 I-0.299 J0.021 F50.
G1 X9.032 Y-19.958
X8.966 Y-19.953 Z-0.192
X8.902 Y-19.949 Z-0.17
X8.846 Y-19.945 Z-0.135
X8.798 Y-19.942 Z-0.087
X8.763 Y-19.939 Z-0.03
X8.741 Y-19.938 Z0.033
X8.733 Y-19.937 Z0.1
G0 Z5.
X8.937 Y-21.338
G1 Z1. F333.
Z0.1
X8.942 Y-21.343 Z0.033 F50.
X8.958 Y-21.359 Z-0.03
X8.984 Y-21.383 Z-0.087
X9.018 Y-21.416 Z-0.135
X9.059 Y-21.456 Z-0.17
X9.105 Y-21.5 Z-0.192
X9.153 Y-21.546 Z-0.2
X9.369 Y-21.754
G3 X9.793 Y-21.746 I0.208 J0.216
G2 X11.004 Y-22.235 I0.507 J-0.489 F10.
G1 Y-22.244
G2 X10.3 Y-22.939 I-0.704 J0.009
X9.793 Y-21.746 I0. J0.704
G3 X9.785 Y-21.322 I-0.216 J0.208 F50.
G1 X9.569 Y-21.114
X9.521 Y-21.068 Z-0.192
X9.476 Y-21.024 Z-0.17
X9.435 Y-20.984 Z-0.135
X9.4 Y-20.951 Z-0.087
X9.375 Y-20.927 Z-0.03
X9.359 Y-20.911 Z0.033
X9.353 Y-20.906 Z0.1
G0 Z5.
X9.815 Y-18.546
G1 Z1. F333.
Z0.1
X9.82 Y-18.54 Z0.033 F50.
X9.834 Y-18.523 Z-0.03
X9.857 Y-18.496 Z-0.087
X9.887 Y-18.459 Z-0.135
X9.923 Y-18.415 Z-0.17
X9.964 Y-18.366 Z-0.192
X10.006 Y-18.314 Z-0.2
X10.196 Y-18.083
G3 X10.155 Y-17.66 I-0.232 J0.19
G2 X9.916 Y-17.155 I0.415 J0.505 F10.
G1 X9.921 Y-17.074
X9.936 Y-16.994
X9.961 Y-16.917
G2 X10.57 Y-16.501 I0.609 J-0.238
Y-17.809 I0. J-0.654
X10.155 Y-17.66 I0. J0.654
G3 X9.733 Y-17.702 I-0.19 J-0.232 F50.
G1 X9.542 Y-17.934
X9.5 Y-17.985 Z-0.192
X9.46 Y-18.034 Z-0.17
X9.424 Y-18.078 Z-0.135
X9.393 Y-18.115 Z-0.087
X9.371 Y-18.142 Z-0.03
X9.357 Y-18.16 Z0.033
X9.352 Y-18.165 Z0.1
G0 Z5.
X9.661 Y-15.91
G1 Z1. F333.
Z0.1
X9.666 Y-15.905 Z0.033 F50.
X9.682 Y-15.89 Z-0.03
X9.708 Y-15.865 Z-0.087
X9.742 Y-15.832 Z-0.135
X9.783 Y-15.792 Z-0.17
X9.828 Y-15.748 Z-0.192
X9.876 Y-15.702 Z-0.2
X10.092 Y-15.494
G3 X10.1 Y-15.069 I-0.208 J0.216
G2 X11.04 Y-14.161 I0.47 J0.454 F10.
X11.224 Y-14.615 I-0.47 J-0.454
G1 Y-14.624
G2 X10.57 Y-15.269 I-0.654 J0.009
X10.1 Y-15.069 I0. J0.654
G3 X9.675 Y-15.062 I-0.216 J-0.208 F50.
G1 X9.46 Y-15.27
X9.412 Y-15.317 Z-0.192
X9.366 Y-15.361 Z-0.17
X9.325 Y-15.4 Z-0.135
X9.291 Y-15.433 Z-0.087
X9.265 Y-15.458 Z-0.03
X9.249 Y-15.474 Z0.033
X9.244 Y-15.479 Z0.1
G0 Z5.
X9.186 Y-14.835
G1 Z1. F333.
Z0.1
X9.185 Y-14.828 Z0.033 F50.
X9.181 Y-14.806 Z-0.03
X9.176 Y-14.771 Z-0.087
X9.169 Y-14.724 Z-0.135
X9.161 Y-14.667 Z-0.17
X9.152 Y-14.605 Z-0.192
X9.142 Y-14.539 Z-0.2
X9.099 Y-14.242
G3 X8.759 Y-13.988 I-0.297 J-0.043
G2 X8.048 Y-13.55 I-0.094 J0.643 F10.
X7.42 Y-14.005 I-0.628 J0.205
G1 X6.1
G2 Y-12.685 I0. J0.66
G1 X7.42
G2 X8.048 Y-13.14 I0. J-0.66
X9.282 Y-13.55 I0.617 J-0.205
X8.759 Y-13.988 I-0.617 J0.205
G3 X8.505 Y-14.328 I0.043 J-0.297 F50.
G1 X8.549 Y-14.625
X8.558 Y-14.691 Z-0.192
X8.567 Y-14.754 Z-0.17
X8.576 Y-14.81 Z-0.135
X8.583 Y-14.857 Z-0.087
X8.588 Y-14.893 Z-0.03
X8.591 Y-14.915 Z0.033
X8.592 Y-14.922 Z0.1
G0 Z5.
X10.246 Y-13.624
G1 Z1. F333.
Z0.1
X10.249 Y-13.617 Z0.033 F50.
X10.258 Y-13.597 Z-0.03
X10.271 Y-13.564 Z-0.087
X10.29 Y-13.52 Z-0.135
X10.312 Y-13.468 Z-0.17
X10.336 Y-13.409 Z-0.192
X10.362 Y-13.348 Z-0.2
X10.478 Y-13.071
G3 X10.317 Y-12.678 I-0.277 J0.116
G2 X10.823 Y-11.472 I0.253 J0.603 F10.
X11.224 Y-12.075 I-0.253 J-0.603
X10.579 Y-12.729 I-0.654 J0.
G1 X10.57
G2 X10.317 Y-12.678 I0. J0.654
G3 X9.925 Y-12.839 I-0.116 J-0.277 F50.
G1 X9.809 Y-13.116
X9.783 Y-13.177 Z-0.192
X9.758 Y-13.236 Z-0.17
X9.736 Y-13.288 Z-0.135
X9.718 Y-13.332 Z-0.087
X9.704 Y-13.365 Z-0.03
X9.696 Y-13.385 Z0.033
X9.693 Y-13.392 Z0.1
G0 Z5.
X11.787 Y-8.006
G1 Z1. F333.
Z0.1
X11.783 Y-8. Z0.033 F50.
X11.769 Y-7.983 Z-0.03
X11.746 Y-7.956 Z-0.087
X11.716 Y-7.919 Z-0.135
X11.68 Y-7.875 Z-0.17
X11.64 Y-7.826 Z-0.192
X11.597 Y-7.774 Z-0.2
X11.407 Y-7.542
G3 X10.985 Y-7.501 I-0.232 J-0.19
G2 X9.916 Y-6.995 I-0.415 J0.506 F10.
G1 X9.921 Y-6.914
X9.936 Y-6.834
X9.961 Y-6.757
G2 X10.57 Y-6.341 I0.609 J-0.238
X10.985 Y-7.501 I0. J-0.654
G3 X10.943 Y-7.923 I0.19 J-0.232 F50.
G1 X11.133 Y-8.155
X11.176 Y-8.206 Z-0.192
X11.216 Y-8.255 Z-0.17
X11.252 Y-8.299 Z-0.135
X11.282 Y-8.336 Z-0.087
X11.305 Y-8.364 Z-0.03
X11.319 Y-8.381 Z0.033
X11.324 Y-8.387 Z0.1
G0 Z5.
X11.769 Y-5.488
G1 Z1. F333.
Z0.1
X11.764 Y-5.482 Z0.033 F50.
X11.751 Y-5.465 Z-0.03
X11.728 Y-5.437 Z-0.087
X11.699 Y-5.4 Z-0.135
X11.664 Y-5.355 Z-0.17
X11.624 Y-5.305 Z-0.192
X11.583 Y-5.253 Z-0.2
X11.397 Y-5.017
G3 X10.976 Y-4.968 I-0.235 J-0.186
G2 X10.57 Y-5.109 I-0.406 J0.513 F10.
Y-3.801 I0. J0.654
X11.224 Y-4.455 I0. J-0.654
G1 Y-4.464
G2 X10.976 Y-4.968 I-0.654 J0.009
G3 X10.926 Y-5.389 I0.186 J-0.235 F50.
G1 X11.112 Y-5.625
X11.154 Y-5.677 Z-0.192
X11.193 Y-5.727 Z-0.17
X11.228 Y-5.772 Z-0.135
X11.258 Y-5.809 Z-0.087
X11.28 Y-5.837 Z-0.03
X11.294 Y-5.854 Z0.033
X11.298 Y-5.86 Z0.1
G0 Z5.
X8.992 Y-5.488
G1 Z1. F333.
Z0.1
X8.984 Z0.033 F50.
X8.962 Y-5.487 Z-0.03
X8.926 Y-5.485 Z-0.087
X8.879 Y-5.483 Z-0.135
X8.822 Y-5.481 Z-0.17
X8.759 Y-5.479 Z-0.192
X8.692 Y-5.476 Z-0.2
X8.392 Y-5.464
G3 X8.08 Y-5.752 I-0.012 J-0.3
G2 X7.42 Y-6.385 I-0.66 J0.027 F10.
G1 X6.1
G2 Y-5.065 I0. J0.66
G1 X7.42
X7.43
G2 X8.081 Y-5.725 I-0.009 J-0.66
G1 X8.08 Y-5.752
G3 X8.368 Y-6.063 I0.3 J-0.012 F50.
G1 X8.668 Y-6.075
X8.734 Y-6.078 Z-0.192
X8.798 Y-6.081 Z-0.17
X8.855 Y-6.083 Z-0.135
X8.902 Y-6.085 Z-0.087
X8.938 Y-6.086 Z-0.03
X8.96 Y-6.087 Z0.033
X8.967 Z0.1
G0 Z5.
X8.754 Y-4.049
G1 Z1. F333.
Z0.1
X8.748 Y-4.044 Z0.033 F50.
X8.732 Y-4.029 Z-0.03
X8.706 Y-4.004 Z-0.087
X8.672 Y-3.971 Z-0.135
X8.631 Y-3.932 Z-0.17
X8.585 Y-3.888 Z-0.192
X8.537 Y-3.842 Z-0.2
X8.321 Y-3.634
G3 X7.897 Y-3.642 I-0.208 J-0.216
G2 X7.42 Y-3.845 I-0.476 J0.457 F10.
G1 X6.1
G2 Y-2.525 I0. J0.66
G1 X7.188
X7.723 Y-1.989
X7.762 Y-1.958
X7.806 Y-1.934
X7.853 Y-1.92
X7.903 Y-1.915
X9.916
G2 X11.224 I0.654 J0.
X10.158 Y-2.423 I-0.654 J0.
G1 X8.008
X7.792 Y-2.639
G2 X7.897 Y-3.642 I-0.372 J-0.546
G3 X7.905 Y-4.067 I0.216 J-0.208 F50.
G1 X8.122 Y-4.274
X8.17 Y-4.321 Z-0.192
X8.216 Y-4.365 Z-0.17
X8.257 Y-4.404 Z-0.135
X8.291 Y-4.437 Z-0.087
X8.317 Y-4.462 Z-0.03
X8.333 Y-4.477 Z0.033
X8.338 Y-4.482 Z0.1
G0 Z5.
X9.661 Y-0.67
G1 Z1. F333.
Z0.1
X9.666 Y-0.665 Z0.033 F50.
X9.682 Y-0.65 Z-0.03
X9.708 Y-0.625 Z-0.087
X9.742 Y-0.592 Z-0.135
X9.783 Y-0.552 Z-0.17
X9.828 Y-0.508 Z-0.192
X9.876 Y-0.462 Z-0.2
X10.092 Y-0.254
G3 X10.1 Y0.171 I-0.208 J0.216
G2 X9.916 Y0.625 I0.47 J0.454 F10.
X10.108 Y1.087 I0.654 J0.
X10.57 Y1.279 I0.462 J-0.463
Y-0.029 I0. J-0.654
X10.1 Y0.171 I0. J0.654
G3 X9.675 Y0.178 I-0.216 J-0.208 F50.
G1 X9.46 Y-0.03
X9.412 Y-0.077 Z-0.192
X9.366 Y-0.121 Z-0.17
X9.325 Y-0.16 Z-0.135
X9.291 Y-0.193 Z-0.087
X9.265 Y-0.218 Z-0.03
X9.249 Y-0.234 Z0.033
X9.244 Y-0.239 Z0.1
G0 Z5.
X-3.166 Y21.964
G1 Z1. F333.
Z0.1
X-3.171 Y21.969 Z0.033 F50.
X-3.186 Y21.986 Z-0.03
X-3.211 Y22.012 Z-0.087
X-3.243 Y22.046 Z-0.135
X-3.282 Y22.088 Z-0.17
X-3.325 Y22.135 Z-0.192
X-3.37 Y22.183 Z-0.2
X-3.575 Y22.403
G3 X-3.999 Y22.419 I-0.22 J-0.204
G2 X-4.884 Y23.37 I-0.443 J0.476 F10.
X-3.999 Y22.419 I0.443 J-0.476
G3 X-4.014 Y21.995 I0.204 J-0.22 F50.
G1 X-3.81 Y21.775
X-3.764 Y21.726 Z-0.192
X-3.721 Y21.68 Z-0.17
X-3.682 Y21.638 Z-0.135
X-3.65 Y21.603 Z-0.087
X-3.626 Y21.577 Z-0.03
X-3.611 Y21.561 Z0.033
X-3.606 Y21.555 Z0.1
G0 Z5.
X-2.622 Y23.487
G1 Z1. F333.
Z0.1
X-2.625 Y23.494 Z0.033 F50.
X-2.632 Y23.515 Z-0.03
X-2.645 Y23.549 Z-0.087
X-2.661 Y23.593 Z-0.135
X-2.68 Y23.647 Z-0.17
X-2.701 Y23.706 Z-0.192
X-2.724 Y23.769 Z-0.2
X-2.826 Y24.052
G3 X-3.209 Y24.232 I-0.282 J-0.102
G2 X-4.152 Y24.895 I-0.238 J0.662 F10.
G1 Y24.904
G2 X-3.448 Y25.599 I0.704 J-0.009
X-3.209 Y24.232 I0. J-0.704
G3 X-3.39 Y23.848 I0.102 J-0.282 F50.
G1 X-3.289 Y23.566
X-3.266 Y23.503 Z-0.192
X-3.244 Y23.444 Z-0.17
X-3.225 Y23.39 Z-0.135
X-3.209 Y23.345 Z-0.087
X-3.197 Y23.312 Z-0.03
X-3.19 Y23.291 Z0.033
X-3.187 Y23.284 Z0.1
G0 Z5.
X-4. Y24.141
G1 Z1. F333.
Z0.1
X-4.006 Y24.146 Z0.033 F50.
X-4.024 Y24.16 Z-0.03
X-4.052 Y24.182 Z-0.087
X-4.089 Y24.211 Z-0.135
X-4.134 Y24.246 Z-0.17
X-4.184 Y24.285 Z-0.192
X-4.236 Y24.326 Z-0.2
X-4.472 Y24.512
G3 X-4.894 Y24.46 I-0.185 J-0.236
G2 X-6.002 Y25.329 I-0.554 J0.434 F10.
X-4.894 Y24.46 I0.554 J-0.434
G3 X-4.843 Y24.039 I0.236 J-0.185 F50.
G1 X-4.606 Y23.854
X-4.554 Y23.813 Z-0.192
X-4.504 Y23.774 Z-0.17
X-4.459 Y23.739 Z-0.135
X-4.422 Y23.71 Z-0.087
X-4.394 Y23.687 Z-0.03
X-4.376 Y23.674 Z0.033
X-4.37 Y23.669 Z0.1
G0 Z15.

G28 G91 Z0.
G90
G28 G91 X0. Y0.
G90
M30
